X:1
T:Six Feet of Mud
M:12/8
L:1/4
K:G
 E3/2 E E/2 E3/2 E E/2| G3/2 F3/2 E3/2 z z/2| B3/2 B B/2 B B/2 B, B,/2|\
 G G/2 F E/2 F3/2 B,3/2| E3/2 E D/2 E3/2 z z/2| E3/2 E D/2 E3/2 z z/2|\
 B3/2 B/2B/2B/2 B3/2 B, B,/2| E3/2 E D/2 E3/2 z z/2|

